X: 19
T: Leidandan haobi shui tuichuan
L: 1/8
M: 2/4
K: A
e> c f a [I:setbarnb 1]| 
e f c B/ B/ | 
c2F A | 
B4 | 
e> c f a | 
e f c B/ B/ | 
c2F A | 
E4 |]

@@@ Tune index: 8893
